X:1
T:Gold Creek, 87.87 D
T:Gold Creek, 87.87 D
T:W. J. Weaver, 1881
T:Public Domain Courtesy of the Cyber Hymnal™
C:W. J. Weaver, 1881
Z:Public Domain
Z:Courtesy of the Cyber Hymnal™
%%score ( 1 2 ) ( 3 4 )
L:1/8
Q:1/4=110
M:9/8
K:Bb
V:1 treble 
V:2 treble 
V:3 bass 
V:4 bass 
V:1
 ([Fd][Ec])[DB] | [DF]3 [FB]3 ([GB][FA])[EG] | [EG]3 [GB]3 (AB)[Fc] | [Fe]3 [Ec]3 (FB)[Ec] | %4
 [Fd]6 ([Fd][Ec])[DB] | [DF]3 [FB]3 ([GB][FA])[EG] | [EG]3 [GB]3 (AB)[Fc] | %7
 [Fd]3 [FB]3 ([FA][DB])[Ec] | [DB]6 ([DB][Ec])[Fd] | [Ge]3 [EG]3 ([Ge][Fd])[Ge] | [Fd]6 (dc)[FB] | %11
 [Fc]3 [FA]3 (dc)[FB] | [Fc]6 ([DB][Ec])[Fd] | [Ff]3 [Fd]3 (cB)[EG] | [EG]3 [GB]3 (AB)[Fc] | %15
 [Fd]3 [DB]3 ([CA][DB])[Ec] | [DB]6 |] %17
V:2
 x3 | x9 | x6 F2 x | x6 D2 x | x9 | x9 | x6 F2 x | x9 | x9 | x9 | x6 F2 x | x6 F2 x | x9 | %13
 x6 E2 x | x6 F2 x | x9 | x6 |] %17
V:3
 [B,,B,]2 [B,,B,] | [B,,B,]3 [D,B,]3 [E,B,]2 [E,B,] | [E,B,]3 [E,E]3 (CD)[F,A,] | %3
 [F,A,]3 [F,A,]3 B,2 B, | B,6 [B,,B,]2 [B,,B,] | [B,,B,]3 [D,B,]3 [E,B,]2 [E,B,] | %6
 [E,B,]3 [E,E]3 (CD)[F,A,] | [B,,B,]3 [D,B,]3 F,2 F, | [B,,F,]6 [B,,B,]2 [B,,B,] | %9
 [E,B,]3 [E,B,]3 [E,B,]2 [E,B,] | [B,,B,]6 ([B,,B,][C,A,])[D,B,] | %11
 [F,A,]3 [F,C]3 ([B,,B,][C,A,])[D,B,] | [F,A,]6 [B,,B,]2 [B,,B,] | %13
 [D,B,]3 [B,,B,]3 [E,G,]2 [E,B,] | [E,B,]3 [E,E]3 (CD)[F,A,] | [B,,B,]3 [B,,B,]3 F,2 F, | %16
 [B,,F,]6 |] %17
V:4
 x3 | x9 | x6 F,2 x | x6 B,2 B, | B,6 x3 | x9 | x6 F,2 x | x6 F,2 F, | x9 | x9 | x9 | x9 | x9 | %13
 x9 | x6 F,2 x | x6 F,2 F, | x6 |] %17

